img/svg/icon13.svg

<svg xmlns="http://www.w3.org/2000/svg" preserveAspectRatio="xMidYMid" width="51" height="51" viewBox="0 0 51 51"><defs><style>.cls-2 { fill: #000000; stroke: #ff4700; stroke-linejoin: round; stroke-width: 1px; opacity: 0.8; fill-opacity: 0; }</style></defs><path d="M36.636 27.136c-.754 1.048-1.381 2.189-1.95 3.359l-2.963-2.962c.457-.857.945-1.704 1.518-2.513 3.022-6.215 3.335-11.17.884-13.961-1.392-1.577-3.748-2.483-6.469-2.483-1.471 0-2.97.257-4.454.761-2.052.7-4.218 2.002-5.766 3.911l-2.84-2.84c1.821-2.136 4.319-3.83 7.319-4.852 1.886-.642 3.807-.967 5.715-.967 3.89 0 7.35 1.398 9.493 3.834 2.554 2.905 4.563 8.473-.366 18.505l-.121.208zm-8.214-10.43l-.803-.02c-.298-.011-.614-.024-.934-.024-1.814 0-2.698.418-3.126 1.486-.082.397-.117.752-.134 1.091l-3.033-3.033c.118-.842.384-1.563.81-2.15.805-1.113 2.11-1.702 3.777-1.702 2.117 0 4.401.978 5.209 1.89.399.452.445.869.409 1.139-.163 1.323-1.677 1.323-2.175 1.323zm17.377 30.803l-42.308-42.308 1.71-1.71 42.308 42.309-1.71 1.709zm-34.484-29.122c.051-.802.18-1.584.368-2.346l3.558 3.558-.009.131-3.988-.258.071-1.085zm14.711 11.993c-.354 1.274-.992 2.527-1.863 3.543-1.108 1.289-2.437 2.001-3.743 2.001-.837 0-2.091-.297-3.309-1.717-.821-1.093-.472-3.412.302-4.96 1.083-2.165 3-2.793 4.779-1.522l.262.17c.03-.25.01-.644-.05-1.134l3.622 3.619zm-14.188 6.384c3.51 0 4.278 2.398 4.691 3.687.266.829.464 1.452 1.098 1.954 7.083-.195 9.243-4.008 11.413-9.008l3.037 3.038c-2.266 5.035-5.469 9.977-14.555 9.977l-.413-.003-.166.005c-.855 0-2.975-.465-4.226-4.77-.105-.329-.241-.754-.324-.862 0 .005-.119-.027-.409-.024l-1.099.024-.115-1.1-.033-2.918h1.101z" id="path-1" class="cls-2" fill-rule="evenodd"/></svg>

<svg xmlns="http://www.w3.org/2000/svg" xmlns:xlink="http://www.w3.org/1999/xlink" preserveAspectRatio="xMidYMid" width="51" height="51" viewBox="0 0 51 51">
  <defs>
    <style>

      .cls-2 {
        fill: #000000;
        stroke: #ff4700;
        stroke-linejoin: round;
        stroke-width: 1px;
        opacity: 0.8;
        fill-opacity: 0;
      }
    </style>
  </defs>
  <path d="M36.636,27.136 C35.882,28.184 35.255,29.325 34.686,30.495 C34.686,30.495 31.723,27.533 31.723,27.533 C32.180,26.676 32.668,25.829 33.241,25.020 C36.263,18.805 36.576,13.850 34.125,11.059 C32.733,9.482 30.377,8.576 27.656,8.576 C26.185,8.576 24.686,8.833 23.202,9.337 C21.150,10.037 18.984,11.339 17.436,13.248 C17.436,13.248 14.596,10.408 14.596,10.408 C16.417,8.272 18.915,6.578 21.915,5.556 C23.801,4.914 25.722,4.589 27.630,4.589 C31.520,4.589 34.980,5.987 37.123,8.423 C39.677,11.328 41.686,16.896 36.757,26.928 C36.757,26.928 36.636,27.136 36.636,27.136 ZM28.422,16.706 C28.177,16.706 27.904,16.696 27.619,16.686 C27.321,16.675 27.005,16.662 26.685,16.662 C24.871,16.662 23.987,17.080 23.559,18.148 C23.477,18.545 23.442,18.900 23.425,19.239 C23.425,19.239 20.392,16.206 20.392,16.206 C20.510,15.364 20.776,14.643 21.202,14.056 C22.007,12.943 23.312,12.354 24.979,12.354 C27.096,12.354 29.380,13.332 30.188,14.244 C30.587,14.696 30.633,15.113 30.597,15.383 C30.434,16.706 28.920,16.706 28.422,16.706 ZM45.799,47.509 C45.799,47.509 3.491,5.201 3.491,5.201 C3.491,5.201 5.201,3.491 5.201,3.491 C5.201,3.491 47.509,45.800 47.509,45.800 C47.509,45.800 45.799,47.509 45.799,47.509 ZM11.315,18.387 C11.366,17.585 11.495,16.803 11.683,16.041 C11.683,16.041 15.241,19.599 15.241,19.599 C15.241,19.599 15.232,19.730 15.232,19.730 C15.232,19.730 11.244,19.472 11.244,19.472 C11.244,19.472 11.315,18.387 11.315,18.387 ZM26.026,30.380 C25.672,31.654 25.034,32.907 24.163,33.923 C23.055,35.212 21.726,35.924 20.420,35.924 C19.583,35.924 18.329,35.627 17.111,34.207 C16.290,33.114 16.639,30.795 17.413,29.247 C18.496,27.082 20.413,26.454 22.192,27.725 C22.297,27.801 22.384,27.855 22.454,27.895 C22.484,27.645 22.464,27.251 22.404,26.761 C22.404,26.761 26.026,30.380 26.026,30.380 ZM11.838,36.764 C15.348,36.764 16.116,39.162 16.529,40.451 C16.795,41.280 16.993,41.903 17.627,42.405 C24.710,42.210 26.870,38.397 29.040,33.397 C29.040,33.397 32.077,36.435 32.077,36.435 C29.811,41.470 26.608,46.412 17.522,46.412 C17.522,46.412 17.109,46.409 17.109,46.409 C17.109,46.409 16.943,46.414 16.943,46.414 C16.088,46.414 13.968,45.949 12.717,41.644 C12.612,41.315 12.476,40.890 12.393,40.782 C12.393,40.787 12.274,40.755 11.984,40.758 C11.984,40.758 10.885,40.782 10.885,40.782 C10.885,40.782 10.770,39.682 10.770,39.682 C10.770,39.682 10.737,36.764 10.737,36.764 C10.737,36.764 11.837,36.764 11.837,36.764 C11.837,36.764 11.838,36.764 11.838,36.764 Z" id="path-1" class="cls-2" fill-rule="evenodd"/>
</svg>
